public/avatar/hat/222.svg

<svg xmlns:xlink="http://www.w3.org/1999/xlink" height="92.9" width="100.7" xmlns="http://www.w3.org/2000/svg"><use height="30.8" transform="translate(17.7 46.3)" width="53.6" xlink:href="#a"/><defs><g id="a" fill-rule="evenodd"><path d="m-13.95 14.75 1.55-1.1q3.05-2.4 4.55-4.4-4.05 1.35-6.1 5.5m5.6-15.95q3.25-2.25 8-2.25Q5.3-3.45 9.75.2q2.45 2.05 5.7 6.7l1.95 2.55q1.7 1.75 4.65 2.35l8.35.7 2.25.1-1.2 1.3q-2.35 2.6-5.7 3.65l3.1.95 2.8.6-2.65 1q-3.35 1.25-6.9.7 1.4 2.6 3.2 4.45l.75.8-.9.55q-1.35.75-3.75.75-.9-3.4-6-4.45-.65-5.25-2.05-8.45l-5.2-2.6 2.15 2.65 2.65 2.25-3.4-.8Q4.2 14.7.2 8.8q-2.25 2.7-7.15 4.75l-4.75 1.6-2.65.6q-1.25 3.15-1.25 7l.05 2.85-1.55-1.65Q-20 20.8-20 17.4q0-2.5 1.5-4.8l-1.15-.85-1.3-1.3 1.8-.2q1.3-.1 2.95-1.35l-4.4.4 3.9-2q1.6-.85 3.95-3.9 2.55-3.35 4.4-4.6" fill="#1a171b" transform="translate(20.95 3.45)"/><path d="M16.3 23.2q-.55-4.15-1.35-6.9 3.15 3.1 6.4 4.9 1.45 2.7 3.35 4.65-1.2.7-3.6.6-1.55-2.35-4.8-3.25" fill="#f89d3d" transform="translate(20.95 3.45)"/><path d="M17.6 20.55q3.4 1.65 4.55 1.95l2.5 3.25q-3.6-1.85-7.05-5.2" fill="#f8d75c" transform="translate(20.95 3.45)"/><path d="M-17.05 12.1q-.75.25-2-1 2.9-.3 5.1-3.3l-2.35.25q1.55-.8 3.15-2.75l2.8-3.55q3.8-4.35 10-4.35 6.55 0 11.45 5.3 2.65 2.8 5.7 7.35 1.9 1.95 5.05 2.55l8.95.75q-2.05 2.3-4.95 3.25l-2.5.55 1 .7q1.55.85 4.35 1.45-2.6.95-5.6.8l-2.5-.4.75 1.5q-3.25-1.8-6.4-4.9l-.9-2.5Q9.7 12.45 7.2 9.55L5.55 6.9l1 3.15q1.35 3.5 3.2 5.1Q3.55 13.7.3 7.35q-2.8 4.8-12.2 6.95 4.75-3.5 5.75-6.35-5.95 1-8.6 6.45-1.85 3.9-1.7 8.95-3.6-3.8-2.45-7.9l1.85-3.35" fill="#f8d75c" transform="translate(20.95 3.45)"/><path d="M1.1 8.4-.85 5q-3.4 5.7-9.95 8.75 6.15-5.65 6.15-7.2-2.25.15-4.9 1.5-8.45 4.25-8.4 11.25-1.2-2.3 1.45-6.45 1.35-2.05 2.9-3.65-2.8 1.85-4.55 1.85 4.3-2 6.65-4.4l-2.65.65 3.9-4.15q1-1.6 3.4-2.95Q-3.7-1.65.05-1.6q-3.7.4-6.35 2.25L-8.2 2.4l3-1.25Q-1.85-.05.1.05q-6.1 2-8.7 4.2 7.8-2.9 8.7-1.9-4.35 1.25-6.8 2.5-1 .5 1.8-.15 4.05-.95 5.15-.55.8.3 2.5 3.55 2 3.8 4.75 6-3.7-1.55-6.4-5.3m27.25 10.85q-5.7-.55-8.15-2.45L16 13.1q-4.55-2.05-6.7-4 3.1 2.25 7 3.2-3.4-2.45-4.15-3.85 1.25 1.3 3.8 2.55L13 7.25 10.15 3.4l3.7 4.25q2.2 3.1 5.1 4.2 3.65 1.35 11.85 1.5-3.8 1.1-7.45.6l-3.95-.85q1.65 2.55 3.25 3.65 2.7 1.9 5.7 2.5" fill="#ffffc2" transform="translate(20.95 3.45)"/><path d="M5.05-.9q3.7 1.4 6.3 4.55Q9.3 2.1 7.25 1.3L5.6.85 7.4 2.2q2.05 1.65 3 3.2-1.75-1.65-3.7-2.35l-1.65-.4L7.4 4.6l3.3 3.9-3.8-2.15q4.85 5.8 5.5 6.2-2.6-1.2-5-3.6L5.5 6.8l1.8 5q-1.95-1.55-3.35-4.25L2.4 4.4q-.6-.7-2.25-.9l-1.55-.05 1.5-.5 2.85.1q-2.7-1.95-4.4-1.7Q1.25.7 3.6 2 2.2-.5-.45-.65 2.8-.85 4.7.4 4.1-.9 1.85-1.65l3.2.75m-21.5 24.25-1.2-1.45q-.3-1.95.35-4.4 1.3-4.85 6.1-7.3-3.55 2.4-4.75 8-.6 2.8-.5 5.15M-.7 6.15l.65 1.75q-1.7 2.9-9.35 5.8 6.65-2.85 8.7-7.55m31 7.7Q28.45 16.1 24.2 17l-2.9-2.15 3.15.35q3.6.05 5.85-1.35m-3.2 6q-4.65.55-6.5-.15-1.15-.45-3.35-2.95L15.3 14.4l3.4 2.6q4.25 2.65 8.4 2.85" fill="#f89d3d" transform="translate(20.95 3.45)"/><path d="m-9.15.4 3.5.9.65.1-3.15 2.3-.15-.05-2.6-1.45-.2-.2L-9.3.3l.15.1m13.4 1h.2l1.7 2.7-.4.1-6.05.6-5.5-.5-.45-.05 1.8-2.8h.15l4.1.2 4.45-.25m6.5.2-.15.2q-.55.9-2.45 1.7L8 3.55l-3.05-2.2.65-.1q2.3-.4 3.45-1l.2-.05 1.5 1.4" fill="#905308" transform="translate(20.95 3.45)"/><path d="m-9.5 2.45-.75-.45.95-.9.15-.1 1.3.35-1.65 1.1" fill="#ffff79" transform="translate(20.95 3.45)"/><path d="m-9.5 2.45 1.65-1.1 1.4.4-1.8 1.3L-8.4 3l-1.1-.55M8.6 1l.5-.15.9.85-.2.2q-.6.55-1.6.95l-.15.05L7 2.1 8.6 1" fill="#de9017" transform="translate(20.95 3.45)"/><path d="m7 2.1-.6-.4L8.6 1 7 2.1M3.95 2h.2l.45.7-4.75-.1q-2.75.1-4.15 1.35l-1-.15 1.05-1.65.1-.1 3.95.2L3.95 2" fill="#ffff79" transform="translate(20.95 3.45)"/><path d="m4.6 2.7.65 1-.45.05-5.1.5-4-.3Q-2.9 2.7-.15 2.6l4.75.1" fill="#de9017" transform="translate(20.95 3.45)"/><path d="M0 .25q2.1 0 2.1 2.1T0 4.45q-2.1 0-2.1-2.1T0 .25" fill="#3f0000" transform="translate(20.95 3.45)"/><path d="M1.55 2.35q0 1.6-1.55 1.6-1.6 0-1.6-1.6Q-1.6.8 0 .8q1.55 0 1.55 1.55" fill="#d40012" transform="translate(20.95 3.45)"/><path d="M.15 1.05q1.35.6.05 1.55-1.25 1-1.5-.4-.15-.55.4-.95.55-.45 1.05-.2" fill="#ff796f" transform="translate(20.95 3.45)"/><path d="M-.2 2.1q-.55.5-.8-.2l.25-.55.55-.1q.7.35 0 .85" fill="#fff" transform="translate(20.95 3.45)"/></g></defs></svg>

<?xml version="1.0" encoding="UTF-8" standalone="no"?>
<svg xmlns:xlink="http://www.w3.org/1999/xlink" height="92.9px" width="100.7px" xmlns="http://www.w3.org/2000/svg">
  <g transform="matrix(1.0, 0.0, 0.0, 1.0, 38.65, 49.75)">
    <use height="30.8" transform="matrix(1.0, 0.0, 0.0, 1.0, -20.95, -3.45)" width="53.6" xlink:href="#shape0"/>
  </g>
  <defs>
    <g id="shape0" transform="matrix(1.0, 0.0, 0.0, 1.0, 20.95, 3.45)">
      <path d="M-13.95 14.75 L-12.4 13.65 Q-9.35 11.25 -7.85 9.25 -11.9 10.6 -13.95 14.75 M-8.35 -1.2 Q-5.1 -3.45 -0.35 -3.45 5.3 -3.45 9.75 0.2 12.2 2.25 15.45 6.9 L17.4 9.45 Q19.1 11.2 22.05 11.8 L30.4 12.5 32.65 12.6 31.45 13.9 Q29.1 16.5 25.75 17.55 L28.85 18.5 31.65 19.1 29.0 20.1 Q25.65 21.35 22.1 20.8 23.5 23.4 25.3 25.25 L26.05 26.05 25.15 26.6 Q23.8 27.35 21.4 27.35 20.5 23.95 15.4 22.9 14.75 17.65 13.35 14.45 L8.15 11.85 10.3 14.5 12.95 16.75 9.55 15.95 Q4.2 14.7 0.2 8.8 -2.05 11.5 -6.95 13.55 L-11.7 15.15 -14.35 15.75 Q-15.6 18.9 -15.6 22.75 L-15.55 25.6 -17.1 23.95 Q-20.0 20.8 -20.0 17.4 -20.0 14.9 -18.5 12.6 L-19.65 11.75 -20.95 10.45 -19.15 10.25 Q-17.85 10.15 -16.2 8.9 L-20.6 9.3 -16.7 7.3 Q-15.1 6.45 -12.75 3.4 -10.2 0.05 -8.35 -1.2" fill="#1a171b" fill-rule="evenodd" stroke="none"/>
      <path d="M16.3 23.2 Q15.75 19.05 14.95 16.3 18.1 19.4 21.35 21.2 22.8 23.9 24.7 25.85 23.5 26.55 21.1 26.45 19.55 24.1 16.3 23.2" fill="#f89d3d" fill-rule="evenodd" stroke="none"/>
      <path d="M17.6 20.55 Q21.0 22.2 22.15 22.5 L24.65 25.75 Q21.05 23.9 17.6 20.55" fill="#f8d75c" fill-rule="evenodd" stroke="none"/>
      <path d="M-17.05 12.1 Q-17.8 12.35 -19.05 11.1 -16.15 10.8 -13.95 7.8 L-16.3 8.05 Q-14.75 7.25 -13.15 5.3 L-10.35 1.75 Q-6.55 -2.6 -0.35 -2.6 6.2 -2.6 11.1 2.7 13.75 5.5 16.8 10.05 18.7 12.0 21.85 12.6 L30.8 13.35 Q28.75 15.65 25.85 16.6 L23.35 17.15 24.35 17.85 Q25.9 18.7 28.7 19.3 26.1 20.25 23.1 20.1 L20.6 19.7 21.35 21.2 Q18.1 19.4 14.95 16.3 L14.05 13.8 Q9.7 12.45 7.2 9.55 L5.55 6.9 6.55 10.05 Q7.9 13.55 9.75 15.15 3.55 13.7 0.3 7.35 -2.5 12.15 -11.9 14.3 -7.15 10.8 -6.15 7.95 -12.1 8.95 -14.75 14.4 -16.6 18.3 -16.45 23.35 -20.05 19.55 -18.9 15.45 L-17.05 12.1" fill="#f8d75c" fill-rule="evenodd" stroke="none"/>
      <path d="M1.1 8.4 L-0.85 5.0 Q-4.25 10.7 -10.8 13.75 -4.65 8.1 -4.65 6.55 -6.9 6.7 -9.55 8.05 -18.0 12.3 -17.95 19.3 -19.15 17.0 -16.5 12.85 -15.15 10.8 -13.6 9.2 -16.4 11.05 -18.15 11.05 -13.85 9.05 -11.5 6.65 L-14.15 7.3 -10.25 3.15 Q-9.25 1.55 -6.85 0.2 -3.7 -1.65 0.05 -1.6 -3.65 -1.2 -6.3 0.65 L-8.2 2.4 -5.2 1.15 Q-1.85 -0.05 0.1 0.05 -6.0 2.05 -8.6 4.25 -0.8 1.35 0.1 2.35 -4.25 3.6 -6.7 4.85 -7.7 5.35 -4.9 4.7 -0.85 3.75 0.25 4.15 1.05 4.45 2.75 7.7 4.75 11.5 7.5 13.7 3.8 12.15 1.1 8.4" fill="#ffffc2" fill-rule="evenodd" stroke="none"/>
      <path d="M28.35 19.25 Q22.65 18.7 20.2 16.8 L16.0 13.1 Q11.45 11.05 9.3 9.1 12.4 11.35 16.3 12.3 12.9 9.85 12.15 8.45 13.4 9.75 15.95 11.0 L13.0 7.25 10.15 3.4 13.85 7.65 Q16.05 10.75 18.95 11.85 22.6 13.2 30.8 13.35 27.0 14.45 23.35 13.95 L19.4 13.1 Q21.05 15.65 22.65 16.75 25.35 18.65 28.35 19.25" fill="#ffffc2" fill-rule="evenodd" stroke="none"/>
      <path d="M5.05 -0.9 Q8.75 0.5 11.35 3.65 9.3 2.1 7.25 1.3 L5.6 0.85 7.4 2.2 Q9.45 3.85 10.4 5.4 8.65 3.75 6.7 3.05 L5.05 2.65 7.4 4.6 10.7 8.5 6.9 6.35 Q11.75 12.15 12.4 12.55 9.8 11.35 7.4 8.95 L5.5 6.8 7.3 11.8 Q5.35 10.25 3.95 7.55 L2.4 4.4 Q1.8 3.7 0.15 3.5 L-1.4 3.45 0.1 2.95 2.95 3.05 Q0.25 1.1 -1.45 1.35 1.25 0.7 3.6 2.0 2.2 -0.5 -0.45 -0.65 2.8 -0.85 4.7 0.4 4.1 -0.9 1.85 -1.65 L5.05 -0.9" fill="#f89d3d" fill-rule="evenodd" stroke="none"/>
      <path d="M-16.45 23.35 L-17.65 21.9 Q-17.95 19.95 -17.3 17.5 -16.0 12.65 -11.2 10.2 -14.75 12.6 -15.95 18.2 -16.55 21.0 -16.45 23.35" fill="#f89d3d" fill-rule="evenodd" stroke="none"/>
      <path d="M-0.7 6.15 L-0.05 7.9 Q-1.75 10.8 -9.4 13.7 -2.75 10.85 -0.7 6.15" fill="#f89d3d" fill-rule="evenodd" stroke="none"/>
      <path d="M30.3 13.85 Q28.45 16.1 24.2 17.0 L21.3 14.85 24.45 15.2 Q28.05 15.25 30.3 13.85" fill="#f89d3d" fill-rule="evenodd" stroke="none"/>
      <path d="M27.1 19.85 Q22.45 20.4 20.6 19.7 19.45 19.25 17.25 16.75 L15.3 14.4 18.7 17.0 Q22.95 19.65 27.1 19.85" fill="#f89d3d" fill-rule="evenodd" stroke="none"/>
      <path d="M-9.15 0.4 L-5.65 1.3 -5.0 1.4 -8.15 3.7 -8.3 3.65 -10.9 2.2 -11.1 2.0 -9.3 0.3 -9.15 0.4 M4.25 1.4 L4.45 1.4 6.15 4.1 5.75 4.2 -0.3 4.8 -5.8 4.3 -6.25 4.25 -4.45 1.45 -4.3 1.45 -0.2 1.65 4.25 1.4 M10.75 1.6 L10.6 1.8 Q10.05 2.7 8.15 3.5 L8.0 3.55 4.95 1.35 5.6 1.25 Q7.9 0.85 9.05 0.25 L9.25 0.2 10.75 1.6" fill="#905308" fill-rule="evenodd" stroke="none"/>
      <path d="M-9.5 2.45 L-10.25 2.0 -9.3 1.1 -9.15 1.0 -7.85 1.35 -9.5 2.45" fill="#ffff79" fill-rule="evenodd" stroke="none"/>
      <path d="M-9.5 2.45 L-7.85 1.35 -6.45 1.75 -8.25 3.05 -8.4 3.0 -9.5 2.45" fill="#de9017" fill-rule="evenodd" stroke="none"/>
      <path d="M8.6 1.0 L9.1 0.85 10.0 1.7 9.8 1.9 Q9.2 2.45 8.2 2.85 L8.05 2.9 7.0 2.1 8.6 1.0" fill="#de9017" fill-rule="evenodd" stroke="none"/>
      <path d="M7.0 2.1 L6.4 1.7 8.6 1.0 7.0 2.1" fill="#ffff79" fill-rule="evenodd" stroke="none"/>
      <path d="M3.95 2.0 L4.15 2.0 4.6 2.7 -0.15 2.6 Q-2.9 2.7 -4.3 3.95 L-5.3 3.8 -4.25 2.15 -4.15 2.05 -0.2 2.25 3.95 2.0" fill="#ffff79" fill-rule="evenodd" stroke="none"/>
      <path d="M4.6 2.7 L5.25 3.7 4.8 3.75 -0.3 4.25 -4.3 3.95 Q-2.9 2.7 -0.15 2.6 L4.6 2.7" fill="#de9017" fill-rule="evenodd" stroke="none"/>
      <path d="M0.0 0.25 Q2.1 0.25 2.1 2.35 2.1 4.45 0.0 4.45 -2.1 4.45 -2.1 2.35 -2.1 0.25 0.0 0.25" fill="#3f0000" fill-rule="evenodd" stroke="none"/>
      <path d="M1.55 2.35 Q1.55 3.95 0.0 3.95 -1.6 3.95 -1.6 2.35 -1.6 0.8 0.0 0.8 1.55 0.8 1.55 2.35" fill="#d40012" fill-rule="evenodd" stroke="none"/>
      <path d="M0.15 1.05 Q1.5 1.65 0.2 2.6 -1.05 3.6 -1.3 2.2 -1.45 1.65 -0.9 1.25 -0.35 0.8 0.15 1.05" fill="#ff796f" fill-rule="evenodd" stroke="none"/>
      <path d="M-0.2 2.1 Q-0.75 2.6 -1.0 1.9 L-0.75 1.35 -0.2 1.25 Q0.5 1.6 -0.2 2.1" fill="#ffffff" fill-rule="evenodd" stroke="none"/>
    </g>
  </defs>
</svg>
